(Generated by Something Version 0.05)

G21 G90 G40

(pocket 1)
G0 Z2
T0 M6
G17
M3
G0 X75.2205 Y31.1552
G1 Z-1 F350
G3 X75.118 Y30.682000000000002 I1.048 J-0.474 F350
G3 X76.268 Y29.531999999999996 I1.1500000000000001 J0
G1 X81.67500000000001 Y29.531999999999996
G3 X82.825 Y30.682000000000002 I0 J1.1500000000000001
G3 X82.72500000000001 Y31.151 I-1.1500000000000001 J0
G1 X80.037 Y37.166000000000004
G3 X77.94 Y37.17 I-1.05 J-0.469
G1 X75.22 Y31.155
G0 Z2
G0 X87.0564 Y24.9716
G1 Z-1 F350
G1 X81.43599999999999 Y36.291000000000004 F350
G1 X80.57499999999999 Y38.025999999999996
G1 X80.305 Y38.567
G2 X80.27699999999999 Y38.626999999999995 I1.854 J0.921
G2 X80.106 Y39.037 I6.162 J2.817
G2 X79.976 Y39.428 I4.473 J1.7000000000000002
G2 X79.884 Y39.825 I3.917 J1.1139999999999999
G1 X78.37100000000001 Y39.825
G2 X78.36 Y39.762 I-3.0140000000000002 J0.47100000000000003
G2 X78.243 Y39.275000000000006 I-4.074999999999999 J0.725
G2 X78.099 Y38.869 I-4.7749999999999995 J1.462
G2 X77.926 Y38.474 I-6.907 J2.785
G2 X80.57499999999999 Y38.025999999999996 I1.061 J-1.777
G2 X80.877 Y37.541000000000004 I-1.5870000000000002 J-1.329
G1 X81.43599999999999 Y36.291000000000004
G1 X83.565 Y31.526
G0 Z2
M5
M30