(Generated by Something Version 0.05)

G21 G90 G40

(pocket 1)
G0 Z2
T0 M6
G17
M3
G0 X75.221 Y31.155
G1 Z-1 F350
G3 X75.118 Y30.682 I1.048 J-0.474 F350
G3 X76.268 Y29.532 I1.150 J0
G1 X81.675 Y29.532
G3 X82.825 Y30.682 I0 J1.150
G3 X82.725 Y31.151 I-1.150 J0
G1 X80.037 Y37.166
G3 X77.94 Y37.17 I-1.05 J-0.469
G1 X75.22 Y31.155
G0 Z2
G0 X87.0564 Y24.9716
G1 Z-1 F350
G1 X81.436 Y36.291 F350
G1 X80.575 Y38.026
G1 X80.305 Y38.567
G2 X80.277 Y38.627 I1.854 J0.921
G2 X80.106 Y39.037 I6.162 J2.817
G2 X79.976 Y39.428 I4.473 J1.700
G2 X79.884 Y39.825 I3.917 J1.114
G1 X78.372 Y39.825
G2 X78.36 Y39.762 I-3.014 J0.471
G2 X78.243 Y39.275 I-4.0745 J0.725
G2 X78.099 Y38.869 I-4.775 J1.462
G2 X77.926 Y38.474 I-6.907 J2.785
G2 X80.575 Y38.026 I1.061 J-1.777
G2 X80.877 Y37.541 I-1.587 J-1.329
G1 X81.436 Y36.291
G1 X83.565 Y31.526
G0 Z2
M5
M30